Lila_HD/emblems/scalable/emblem-newdir.svg

<?xml version="1.0" encoding="UTF-8" standalone="no"?>
<svg
   xmlns:dc="http://purl.org/dc/elements/1.1/"
   xmlns:cc="http://creativecommons.org/ns#"
   xmlns:rdf="http://www.w3.org/1999/02/22-rdf-syntax-ns#"
   xmlns:svg="http://www.w3.org/2000/svg"
   xmlns="http://www.w3.org/2000/svg"
   xmlns:xlink="http://www.w3.org/1999/xlink"
   xmlns:sodipodi="http://sodipodi.sourceforge.net/DTD/sodipodi-0.dtd"
   xmlns:inkscape="http://www.inkscape.org/namespaces/inkscape"
   height="32"
   width="32"
   inkscape:version="1.0beta2 (2b71d25d45, 2019-12-03)"
   sodipodi:docname="emblem-newdir.svg"
   id="svg5"
   version="1.1"
   viewBox="0 0 32 32">
  <metadata
     id="metadata9">
    <rdf:RDF>
      <cc:Work
         rdf:about="">
        <dc:format>image/svg+xml</dc:format>
        <dc:type
           rdf:resource="http://purl.org/dc/dcmitype/StillImage" />
        <dc:title></dc:title>
        <dc:creator>
          <cc:Agent>
            <dc:title>Cristian Pozzessere &quot;ilnanny&quot;</dc:title>
          </cc:Agent>
        </dc:creator>
        <dc:subject>
          <rdf:Bag>
            <rdf:li>Global language</rdf:li>
          </rdf:Bag>
        </dc:subject>
        <dc:description>Playing with Inkscape on Gnu/Linux O. S.</dc:description>
        <dc:contributor>
          <cc:Agent>
            <dc:title>In the night, alone like a dog.</dc:title>
          </cc:Agent>
        </dc:contributor>
      </cc:Work>
    </rdf:RDF>
  </metadata>
  <sodipodi:namedview
     inkscape:document-rotation="0"
     inkscape:current-layer="g855"
     inkscape:window-maximized="1"
     inkscape:window-y="21"
     inkscape:window-x="0"
     inkscape:cy="45.062832"
     inkscape:cx="-12.212013"
     inkscape:zoom="3.8553851"
     showguides="false"
     showgrid="false"
     id="namedview7"
     inkscape:window-height="1029"
     inkscape:window-width="1920"
     inkscape:pageshadow="2"
     inkscape:pageopacity="0"
     guidetolerance="10"
     gridtolerance="10"
     objecttolerance="10"
     borderopacity="1"
     bordercolor="#666666"
     pagecolor="#ffffff" />
  <defs
     id="defs3051">
    <style
       id="current-color-scheme"
       type="text/css">
      .ColorScheme-Text {
        color:#4d4d4d;
      }
      </style>
    <linearGradient
       y2="47.000011"
       x2="90"
       y1="47.000011"
       x1="6"
       gradientTransform="matrix(0.35826124,0,0,0.35826117,-1.5152258,-0.89089364)"
       gradientUnits="userSpaceOnUse"
       id="linearGradient4071"
       xlink:href="#linearGradient6139-0"
       inkscape:collect="always" />
    <linearGradient
       id="linearGradient6139-0">
      <stop
         style="stop-color:#b2babc;stop-opacity:1"
         offset="0"
         id="stop6141-2" />
      <stop
         id="stop6151-0"
         offset="0.25"
         style="stop-color:#ffffff;stop-opacity:1;" />
      <stop
         id="stop6147-1"
         offset="0.5"
         style="stop-color:#96a1a4;stop-opacity:1" />
      <stop
         style="stop-color:#fbf9f9;stop-opacity:1;"
         offset="0.75"
         id="stop6149-4" />
      <stop
         style="stop-color:#b2b9bc;stop-opacity:1"
         offset="1"
         id="stop6143-4" />
    </linearGradient>
    <linearGradient
       gradientUnits="userSpaceOnUse"
       y2="88.171875"
       x2="94.5"
       y1="88.171875"
       x1="1.5"
       id="linearGradient4129"
       xlink:href="#linearGradient3832-0-6-1-1"
       inkscape:collect="always"
       gradientTransform="matrix(0.32359081,0,0,0.32359081,0.14895512,0.415026)" />
    <linearGradient
       id="linearGradient3832-0-6-1-1">
      <stop
         id="stop3834-6-3-7-1"
         offset="0"
         style="stop-color:#000000;stop-opacity:1;" />
      <stop
         style="stop-color:#000000;stop-opacity:0.58823532;"
         offset="0.1"
         id="stop3872-2-4" />
      <stop
         id="stop3844-6-2-7-6"
         offset="0.89999998"
         style="stop-color:#000000;stop-opacity:0.58823532;" />
      <stop
         id="stop3836-5-0-2-9"
         offset="1"
         style="stop-color:#000000;stop-opacity:1;" />
    </linearGradient>
    <radialGradient
       r="43.199203"
       fy="44.892841"
       fx="13.948145"
       cy="44.892841"
       cx="13.948145"
       gradientTransform="matrix(0.31554433,0,0,0.01591766,11.118261,26.356232)"
       gradientUnits="userSpaceOnUse"
       id="radialGradient7462"
       xlink:href="#linearGradient3737"
       inkscape:collect="always" />
    <linearGradient
       id="linearGradient3737">
      <stop
         id="stop3739"
         style="stop-color:#ffffff;stop-opacity:1"
         offset="0" />
      <stop
         id="stop3741"
         style="stop-color:#ffffff;stop-opacity:0"
         offset="1" />
    </linearGradient>
    <radialGradient
       r="43.199203"
       fy="44.892841"
       fx="13.948145"
       cy="44.892841"
       cx="13.948145"
       gradientTransform="matrix(0.28745433,0,0,0.01591766,10.622534,-29.32659)"
       gradientUnits="userSpaceOnUse"
       id="radialGradient7464"
       xlink:href="#linearGradient3737"
       inkscape:collect="always" />
    <linearGradient
       y2="14.514202"
       x2="50.527882"
       y1="-28.64156"
       x1="2.7713892"
       gradientUnits="userSpaceOnUse"
       id="linearGradient4767"
       xlink:href="#linearGradient3737"
       inkscape:collect="always" />
    <clipPath
       clipPathUnits="userSpaceOnUse"
       id="clipPath4156-4-1">
      <path
         style="opacity:0.6;fill:#ffffff;fill-opacity:1;stroke:none"
         d="m 27.046336,-55.695463 -14.21366,13.321486 h 0.06127 l 15.653407,21.770763 10.231384,-10.546177 C 38.561832,-32.30156 27.468089,-54.819245 27.046336,-55.695463 Z M 9.6468554,-39.382809 -5.2407289,-25.32124 15.987863,-7.8059573 26.372412,-18.382966 Z m 31.4906096,12.951445 -9.741259,9.713584 8.944804,12.4580526 7.780753,-7.5550056 z m -49.8397109,4.378822 -13.7541661,12.9822847 26.2830181,13.84571 0.06127,-0.0617 -0.122531,-0.0617 L 13.598503,-5.4007374 -8.7022409,-22.052595 Z m 38.0154159,7.400825 -9.802525,9.7752596 11.579232,9.5594001 7.62759,-7.40083 -8.669108,-11.0087257 z m 20.187073,5.6739697 -7.382526,7.2158 6.187844,8.54179 5.820249,-6.13651996 z m -32.195166,6.32154 -9.5574606,9.49772 13.6622686,7.1849703 7.933918,-7.6783603 z m 23.311629,2.37443004 -7.10683,6.93826996 8.362778,6.9074403 5.360756,-5.6739699 -0.06127,-0.0925 -0.0919,0.12335 -6.463539,-8.20258036 z m -8.730374,8.54178036 -7.505057,7.3391599 10.353916,5.45811 c 1.397496,-1.32103 5.67514,-6.12292 5.850882,-6.32154 z"
         id="path4158-0-8"
         inkscape:connector-curvature="0" />
    </clipPath>
  </defs>
  <g
     inkscape:label="Livello 1"
     id="layer1"
     transform="translate(0,-1026.5197)">
    <g
       transform="translate(-0.14895645,1026.1047)"
       style="display:inline"
       id="g2574">
      <g
         transform="matrix(0.99791666,0,0,0.99791667,0.10031065,0.10083848)"
         id="g855">
        <g
           transform="translate(0.40083544,0.40083526)"
           id="g52">
          <path
             inkscape:connector-curvature="0"
             id="path3288"
             d="M 28.994765,0.415026 H 2.3678619 c -1.2292724,0 -2.218906,0.9896329 -2.218906,2.2189075 V 29.260836 c 0,1.229275 0.9896336,2.218908 2.218906,2.218908 H 28.994765 c 1.229275,0 2.218909,-0.989633 2.218909,-2.218908 V 2.6339335 c 0,-1.2292746 -0.989634,-2.2189075 -2.218909,-2.2189075 z"
             style="display:inline;opacity:0.15;fill:#000000;fill-opacity:1;fill-rule:nonzero;stroke:none;stroke-width:0.323591" />
          <path
             style="display:inline;opacity:0.15;fill:#000000;fill-opacity:1;fill-rule:nonzero;stroke:none;stroke-width:0.323591"
             d="M 28.786742,0.65771911 H 2.5758841 c -1.2100652,0 -2.18423567,0.97416979 -2.18423567,2.18423699 V 29.052813 c 0,1.210068 0.97417047,2.184238 2.18423567,2.184238 H 28.786742 c 1.210069,0 2.184239,-0.97417 2.184239,-2.184238 V 2.8419561 c 0,-1.2100672 -0.97417,-2.18423699 -2.184239,-2.18423699 z"
             id="path4085"
             inkscape:connector-curvature="0" />
          <path
             inkscape:connector-curvature="0"
             id="rect4251-1"
             d="M 28.578718,0.90041222 H 2.783909 c -1.1908604,0 -2.14956733,0.95870668 -2.14956733,2.14956678 v 25.794812 c 0,1.19086 0.95870693,2.149567 2.14956733,2.149567 h 25.794809 c 1.190861,0 2.149567,-0.958707 2.149567,-2.149567 V 3.049979 c 0,-1.1908601 -0.958706,-2.14956678 -2.149567,-2.14956678 z"
             style="display:inline;fill:url(#linearGradient4071);fill-opacity:1;fill-rule:nonzero;stroke:none;stroke-width:0.323591" />
          <path
             sodipodi:nodetypes="sscccsccscccsss"
             inkscape:connector-curvature="0"
             id="path3400-6"
             d="m 3.7865344,2.4818465 c -0.924336,0 -1.6581209,0.7404982 -1.6581209,1.673289 v 6.9336905 2.342604 12.915698 c 0.3550568,0.545084 0.9606921,0.909851 1.6581209,0.909851 H 5.1130312 26.33698 27.663477 c 0.697429,0 1.303064,-0.364767 1.658121,-0.909851 V 13.43143 11.088826 4.1551355 c 0,-0.9327908 -0.733785,-1.673289 -1.658121,-1.673289 z"
             style="display:inline;opacity:0.778646;fill:#f5f3f3;fill-opacity:1;fill-rule:nonzero;stroke:none;stroke-width:0.333138" />
          <path
             style="color:#000000;font-style:normal;font-variant:normal;font-weight:normal;font-stretch:normal;font-size:medium;line-height:normal;font-family:Sans;-inkscape-font-specification:Sans;text-indent:0;text-align:start;text-decoration:none;text-decoration-line:none;letter-spacing:normal;word-spacing:normal;text-transform:none;writing-mode:lr-tb;direction:ltr;baseline-shift:baseline;text-anchor:start;display:inline;overflow:visible;visibility:visible;fill:#241f1f;fill-opacity:0.632653;stroke:none;stroke-width:0.768688;marker:none;enable-background:accumulate"
             d="m 3.3282609,1.9454361 c -1.0085099,0 -1.8341014,0.8217621 -1.8341014,1.8269951 V 26.190154 c 0,1.005233 0.8255915,1.826995 1.8341014,1.826995 H 28.177377 c 1.00851,0 1.834102,-0.821762 1.834102,-1.826995 V 3.7724312 c 0,-1.0052327 -0.825592,-1.8269951 -1.834102,-1.8269951 z m 0,0.7505492 H 28.177377 c 0.610972,0 1.084684,0.4789451 1.084684,1.0764459 V 26.190154 c 0,0.597502 -0.473712,1.076446 -1.084684,1.076446 H 3.3282609 c -0.6109715,0 -1.0846835,-0.478944 -1.0846835,-1.076446 V 3.7724312 c 0,-0.5975008 0.473712,-1.0764459 1.0846835,-1.0764459 z"
             id="path4989"
             inkscape:connector-curvature="0" />
          <path
             id="path4118"
             d="m 0.63434134,26.898912 v 1.941544 c 0,1.190861 0.96304076,2.153902 2.15390126,2.153902 H 28.574385 c 1.190861,0 2.153903,-0.963041 2.153903,-2.153902 v -1.941544 c 0,1.19086 -0.963042,2.153901 -2.153903,2.153901 H 2.7882426 c -1.1908605,0 -2.15390126,-0.963041 -2.15390126,-2.153901 z"
             style="display:inline;opacity:0.658182;fill:url(#linearGradient4129);fill-opacity:1;fill-rule:nonzero;stroke:none;stroke-width:0.323591"
             inkscape:connector-curvature="0" />
          <rect
             ry="1.3752609"
             rx="0"
             y="26.38319"
             x="1.8882558"
             height="1.3752609"
             width="27.262529"
             id="rect4131"
             style="opacity:0.55;fill:url(#radialGradient7462);fill-opacity:1;stroke:none;stroke-width:0.323591" />
          <rect
             transform="rotate(90)"
             style="opacity:0.669;fill:url(#radialGradient7464);fill-opacity:1;stroke:none;stroke-width:0.323591"
             id="rect4141"
             width="24.835594"
             height="1.3752609"
             x="2.2141898"
             y="-29.299637"
             rx="0"
             ry="1.3752609" />
          <path
             inkscape:connector-curvature="0"
             id="path4520"
             style="font-style:normal;font-variant:normal;font-weight:bold;font-stretch:normal;font-size:64.1336px;line-height:25.0522px;font-family:MathJax_Main;-inkscape-font-specification:'MathJax_Main Bold';font-variant-ligatures:normal;font-variant-caps:normal;font-variant-numeric:normal;font-feature-settings:normal;text-align:center;writing-mode:lr-tb;text-anchor:middle;display:inline;opacity:1;fill:#4d4d4d;fill-opacity:1;fill-rule:nonzero;stroke:#4d4d4d;stroke-width:0.73818;stroke-linecap:square;stroke-linejoin:round;stroke-miterlimit:4;stroke-dasharray:none;stroke-opacity:1;paint-order:fill markers stroke"
             d="m 21.950548,14.362258 v 4.609409 h 4.813296 v 2.075993 h -4.813296 v 4.609409 H 19.75598 V 21.04766 H 14.942684 V 18.971667 H 19.75598 V 14.362258 Z M 4.4910282,5.4454448 V 25.800792 H 15.681315 V 24.952653 H 5.4235522 V 13.92684 h 4.6626188 l 2.797572,-2.544419 H 25.93908 v 4.240698 h 0.932522 V 7.9898634 H 17.546363 L 14.748791,5.4454448 Z" />
          <rect
             clip-path="url(#clipPath4156-4-1)"
             ry="3.9569881"
             rx="3.9569874"
             y="-30"
             x="2"
             height="69.024437"
             width="75.965775"
             id="rect4146"
             style="opacity:0.507812;fill:url(#linearGradient4767);fill-opacity:1;stroke:none"
             transform="matrix(0.34599789,0,0,0.33902056,1.538851,12.866473)" />
        </g>
        <g
           transform="matrix(0.86808449,0,0,0.86808449,8.1006745,14.978519)"
           id="text4518"
           style="font-style:normal;font-variant:normal;font-weight:bold;font-stretch:normal;font-size:64.1336px;line-height:25.0522px;font-family:MathJax_Main;-inkscape-font-specification:'MathJax_Main Bold';font-variant-ligatures:normal;font-variant-caps:normal;font-variant-numeric:normal;font-feature-settings:normal;text-align:center;writing-mode:lr-tb;text-anchor:middle;opacity:1;fill:#4d4d4d;fill-opacity:1;fill-rule:nonzero;stroke:#4d4d4d;stroke-width:2.5667;stroke-linecap:square;stroke-linejoin:round;stroke-miterlimit:4;stroke-dasharray:none;stroke-opacity:1;paint-order:fill markers stroke"
           aria-label="+" />
      </g>
    </g>
  </g>
</svg>

<?xml version="1.0" encoding="UTF-8"?>
<svg version="1.1" viewBox="0 0 32 32" xmlns="http://www.w3.org/2000/svg" xmlns:cc="http://creativecommons.org/ns#" xmlns:dc="http://purl.org/dc/elements/1.1/" xmlns:rdf="http://www.w3.org/1999/02/22-rdf-syntax-ns#" xmlns:xlink="http://www.w3.org/1999/xlink">
<metadata>
<rdf:RDF>
<cc:Work rdf:about="">
<dc:format>image/svg+xml</dc:format>
<dc:type rdf:resource="http://purl.org/dc/dcmitype/StillImage"/>
<dc:title/>
<dc:creator>
<cc:Agent>
<dc:title>Cristian Pozzessere "ilnanny"</dc:title>
</cc:Agent>
</dc:creator>
<dc:subject>
<rdf:Bag>
<rdf:li>Global language</rdf:li>
</rdf:Bag>
</dc:subject>
<dc:description>Playing with Inkscape on Gnu/Linux O. S.</dc:description>
<dc:contributor>
<cc:Agent>
<dc:title>In the night, alone like a dog.</dc:title>
</cc:Agent>
</dc:contributor>
</cc:Work>
</rdf:RDF>
</metadata>
<defs>
<style type="text/css">.ColorScheme-Text {
        color:#4d4d4d;
      }</style>
<linearGradient id="linearGradient4071" x1="6" x2="90" y1="47" y2="47" gradientTransform="matrix(.35826 0 0 .35826 -1.5152 -.89089)" gradientUnits="userSpaceOnUse">
<stop stop-color="#b2babc" offset="0"/>
<stop stop-color="#fff" offset=".25"/>
<stop stop-color="#96a1a4" offset=".5"/>
<stop stop-color="#fbf9f9" offset=".75"/>
<stop stop-color="#b2b9bc" offset="1"/>
</linearGradient>
<linearGradient id="linearGradient4129" x1="1.5" x2="94.5" y1="88.172" y2="88.172" gradientTransform="matrix(.32359 0 0 .32359 .14896 .41503)" gradientUnits="userSpaceOnUse">
<stop offset="0"/>
<stop stop-opacity=".58824" offset=".1"/>
<stop stop-opacity=".58824" offset=".9"/>
<stop offset="1"/>
</linearGradient>
<radialGradient id="radialGradient7462" cx="13.948" cy="44.893" r="43.199" gradientTransform="matrix(.31554 0 0 .015918 11.118 26.356)" gradientUnits="userSpaceOnUse" xlink:href="#linearGradient3737"/>
<linearGradient id="linearGradient3737">
<stop stop-color="#fff" offset="0"/>
<stop stop-color="#fff" stop-opacity="0" offset="1"/>
</linearGradient>
<radialGradient id="radialGradient7464" cx="13.948" cy="44.893" r="43.199" gradientTransform="matrix(.28745 0 0 .015918 10.623 -29.327)" gradientUnits="userSpaceOnUse" xlink:href="#linearGradient3737"/>
<linearGradient id="linearGradient4767" x1="2.7714" x2="50.528" y1="-28.642" y2="14.514" gradientUnits="userSpaceOnUse" xlink:href="#linearGradient3737"/>
<clipPath id="clipPath4156-4-1">
<path d="m27.046-55.695-14.214 13.321h0.06127l15.653 21.771 10.231-10.546c-0.2169-1.1522-11.311-23.67-11.732-24.546zm-17.399 16.313-14.888 14.062 21.229 17.515 10.385-10.577zm31.491 12.951-9.7413 9.7136 8.9448 12.458 7.7808-7.555zm-49.84 4.3788-13.754 12.982 26.283 13.846 0.06127-0.0617-0.12253-0.0617 9.8332-10.053-22.301-16.652zm38.015 7.4008-9.8025 9.7753 11.579 9.5594 7.6276-7.4008-8.6691-11.009zm20.187 5.674-7.3825 7.2158 6.1878 8.5418 5.8202-6.1365zm-32.195 6.3215-9.5575 9.4977 13.662 7.185 7.9339-7.6784zm23.312 2.3744-7.1068 6.9383 8.3628 6.9074 5.3608-5.674-0.06127-0.0925-0.0919 0.12335-6.4635-8.2026zm-8.7304 8.5418-7.5051 7.3392 10.354 5.4581c1.3975-1.321 5.6751-6.1229 5.8509-6.3215z" fill="#fff" opacity=".6"/>
</clipPath>
</defs>
<g transform="translate(0 -1026.5)">
<g transform="translate(-.14896 1026.1)">
<g transform="matrix(.99792 0 0 .99792 .10031 .10084)">
<g transform="translate(.40084 .40084)">
<path d="m28.995 0.41503h-26.627c-1.2293 0-2.2189 0.98963-2.2189 2.2189v26.627c0 1.2293 0.98963 2.2189 2.2189 2.2189h26.627c1.2293 0 2.2189-0.98963 2.2189-2.2189v-26.627c0-1.2293-0.98963-2.2189-2.2189-2.2189z" opacity=".15"/>
<path d="m28.787 0.65772h-26.211c-1.2101 0-2.1842 0.97417-2.1842 2.1842v26.211c0 1.2101 0.97417 2.1842 2.1842 2.1842h26.211c1.2101 0 2.1842-0.97417 2.1842-2.1842v-26.211c0-1.2101-0.97417-2.1842-2.1842-2.1842z" opacity=".15"/>
<path d="m28.579 0.90041h-25.795c-1.1909 0-2.1496 0.95871-2.1496 2.1496v25.795c0 1.1909 0.95871 2.1496 2.1496 2.1496h25.795c1.1909 0 2.1496-0.95871 2.1496-2.1496v-25.795c0-1.1909-0.95871-2.1496-2.1496-2.1496z" fill="url(#linearGradient4071)"/>
<path d="m3.7865 2.4818c-0.92434 0-1.6581 0.7405-1.6581 1.6733v22.192c0.35506 0.54508 0.96069 0.90985 1.6581 0.90985h23.877c0.69743 0 1.3031-0.36477 1.6581-0.90985v-22.192c0-0.93279-0.73378-1.6733-1.6581-1.6733z" fill="#f5f3f3" opacity=".77865"/>
<path d="m3.3283 1.9454c-1.0085 0-1.8341 0.82176-1.8341 1.827v22.418c0 1.0052 0.82559 1.827 1.8341 1.827h24.849c1.0085 0 1.8341-0.82176 1.8341-1.827v-22.418c0-1.0052-0.82559-1.827-1.8341-1.827zm0 0.75055h24.849c0.61097 0 1.0847 0.47895 1.0847 1.0764v22.418c0 0.5975-0.47371 1.0764-1.0847 1.0764h-24.849c-0.61097 0-1.0847-0.47894-1.0847-1.0764v-22.418c0-0.5975 0.47371-1.0764 1.0847-1.0764z" color="#000000" fill="#241f1f" fill-opacity=".63265" style="text-decoration-line:none;text-indent:0;text-transform:none"/>
<path d="m0.63434 26.899v1.9415c0 1.1909 0.96304 2.1539 2.1539 2.1539h25.786c1.1909 0 2.1539-0.96304 2.1539-2.1539v-1.9415c0 1.1909-0.96304 2.1539-2.1539 2.1539h-25.786c-1.1909 0-2.1539-0.96304-2.1539-2.1539z" fill="url(#linearGradient4129)" opacity=".65818"/>
<rect x="1.8883" y="26.383" width="27.263" height="1.3753" rx="0" ry="1.3753" fill="url(#radialGradient7462)" opacity=".55"/>
<rect transform="rotate(90)" x="2.2142" y="-29.3" width="24.836" height="1.3753" rx="0" ry="1.3753" fill="url(#radialGradient7464)" opacity=".669"/>
<path d="m21.951 14.362v4.6094h4.8133v2.076h-4.8133v4.6094h-2.1946v-4.6094h-4.8133v-2.076h4.8133v-4.6094zm-17.46-8.9168v20.355h11.19v-0.84814h-10.258v-11.026h4.6626l2.7976-2.5444h13.055v4.2407h0.93252v-7.6333h-9.3252l-2.7976-2.5444z" fill="#4d4d4d" stroke="#4d4d4d" stroke-linecap="square" stroke-linejoin="round" stroke-width=".73818" style="font-feature-settings:normal;font-variant-caps:normal;font-variant-ligatures:normal;font-variant-numeric:normal;paint-order:fill markers stroke"/>
<rect transform="matrix(.346 0 0 .33902 1.5389 12.866)" x="2" y="-30" width="75.966" height="69.024" rx="3.957" ry="3.957" clip-path="url(#clipPath4156-4-1)" fill="url(#linearGradient4767)" opacity=".50781"/>
</g>
</g>
</g>
</g>
</svg>
